X:18
T:GB/7d/18 Queen's Delight
%%VWML:GB-7d-18-0
F:http://www.vwml.org/record/GB/7d/18
T:Bucknell Morris Tunes 2 of 8
C:Transcribed by Simon Furey and Lewis Jones
L:1/8
M:6/8
I:linebreak $
K:G
d2 G dcB | cBc ABc | d2 G d2 c | BcA G3 :| cBc cBc | ABc def | gfg eag |$ gfe def | g2 g gfe | dec ABc | d2 G d2 c | BcA G3 ||"^Uprights" cBc cBc |[M:9/8] ABc d2 e f3 |$[M:6/8] g2 f g3 | (2:3:2ea g3 |[M:9/8] g2 f e3 def |[M:6/8] g2 g gfe | dec ABc | d2 G d2 c | BcA G3 |]

